X:1
T:Title
L:1/8
Q:1/4=200
M:3/2
K:Eb
V:1 treble nm="Church Organ, Staff"
V:1
 E4 G4 B4 | e8 c2 c2 | c4 B4 A4 | A4 G8 | G4 F4 E4 | B4 A4 G4 | G4 F4 E4 | D8 F4 | G4 A4 A4 | %9
w: By~Mr.~Herbert~Stephen~Irons * *|||||||||
 G4 G4 G4 | A4 B4 B4 | A8 c4 | d4 e4 f4 | B4 e4 e4- | e2 f2 d4 e4- | e8 z4 |] %16
w: |||||||

